X: 2275
T: Bachelor's
R: jig
M: 6/8
K: Gmajor
c|:BAG GDG|BAB d2g|edg edB|dBA A2c|
BAG GDG|BAB d2g|edg edB|1 dBG G2c:|2 dBG GBc||
|:dBg fgd|ecg fge|dBg BAG|BAA ABc|
[1 dBg fgd|ecg fge|dBg BAG|BAG GBc:|
[2 BAG GDG|BAB d2g|edg edB|dBG G2||

